X:5548
T:Richer's Hornpipe
O:england
R:Hornpipe
M:C|
A:Westmorland
N:P32 1/1
K:C
fg|afaf d2ef|ecec A2GF|GABc defg|ecAc e2fg|\
afaf d2ef|ecec A2GF|G2b2 afge|d2d2d2::\
de|fdec B2ga|b2e2e2cd|ececA2fg|a2d2d2A2|\
BcdB AFAF|BcdB AFAF|E2b2 afge|d2ded3:|
